lib/flags/cc-cocos-keeling-islands.svg

<svg xmlns="http://www.w3.org/2000/svg" fill="none" aria-hidden="true" viewBox="0 0 42 30"><g id="Country=CC - Cocos (Keeling) Islands, Size=sm (36x24)" filter="url(#filter0_dd_91_29040)"><g clip-path="url(#clip0_91_29040)"><g id="flag"><mask id="mask0_91_29040" width="36" height="24" x="3" y="2" maskUnits="userSpaceOnUse" style="mask-type:alpha"><rect id="mask" width="36" height="24" x="3" y="2" fill="white"/></mask><g mask="url(#mask0_91_29040)"><g id="contents"><path id="green" fill="#5EAA22" fill-rule="evenodd" d="M3 2H39V26H3V2Z" clip-rule="evenodd"/><g id="mark 3"><path id="Star 7" fill="#FECA00" fill-rule="evenodd" d="M30 9L28.875 9.73205L29.0257 8.5L27.75 8L29.0257 7.5L28.875 6.26795L30 7L31.125 6.26795L30.9743 7.5L32.25 8L30.9743 8.5L31.125 9.73205L30 9Z" clip-rule="evenodd"/><path id="Star 7_2" fill="#FECA00" fill-rule="evenodd" d="M28.833 15.6786L27.708 16.4106L27.8587 15.1786L26.583 14.6786L27.8587 14.1786L27.708 12.9465L28.833 13.6786L29.958 12.9465L29.8073 14.1786L31.083 14.6786L29.8073 15.1786L29.958 16.4106L28.833 15.6786Z" clip-rule="evenodd"/><path id="Star 7_3" fill="#FECA00" fill-rule="evenodd" d="M32.25 21L31.125 21.7321L31.2757 20.5L30 20L31.2757 19.5L31.125 18.2679L32.25 19L33.375 18.2679L33.2243 19.5L34.5 20L33.2243 20.5L33.375 21.7321L32.25 21Z" clip-rule="evenodd"/><path id="Star 7_4" fill="#FECA00" fill-rule="evenodd" d="M33.375 11.5L32.8125 11.866L32.8879 11.25L32.25 11L32.8879 10.75L32.8125 10.134L33.375 10.5L33.9375 10.134L33.8621 10.75L34.5 11L33.8621 11.25L33.9375 11.866L33.375 11.5Z" clip-rule="evenodd"/></g><g id="mark 2"><path id="Oval 13" fill="#FECA00" fill-rule="evenodd" d="M10.875 16C13.9816 16 16.5 13.7614 16.5 11C16.5 8.23858 13.9816 6 10.875 6C7.7684 6 5.25 8.23858 5.25 11C5.25 13.7614 7.7684 16 10.875 16Z" clip-rule="evenodd"/></g><g id="mark 1"><path id="Oval 13_2" fill="#FECA00" fill-rule="evenodd" d="M25.385 16.9449C24.6445 18.0745 23.4678 18.5872 21.8928 18.5872C19.5358 18.5872 17.625 16.8887 17.625 14.7936C17.625 12.6984 19.5358 11 21.8928 11C23.6911 11 25.126 11.5593 25.7843 13.0826C25.2632 12.6233 24.4566 12.3081 23.25 12.3481C21.386 12.3481 20.1735 13.6389 20.1735 14.7434C20.1735 15.848 21.386 17.3495 23.25 17.3495C24.1875 17.337 24.88 17.1846 25.385 16.9449Z" clip-rule="evenodd"/></g><g id="tree"><path id="Path 2" fill="#915E2B" d="M11.5302 10.6939C11.5302 10.6939 10.4303 14.2748 9.97619 14.6137C9.77516 14.6925 11.7972 14.6137 11.7972 14.6137C11.7972 14.6137 11.0392 14.3189 11.3062 13.9265C11.5732 13.5341 11.922 11.0097 11.7972 10.1499C11.6724 9.28999 11.5302 10.6939 11.5302 10.6939Z"/><path id="Path 3" fill="#5EAA22" fill-rule="evenodd" d="M11.7642 10.8268C11.7642 10.8268 12.9435 11.1416 12.9435 11.6773C12.9435 12.213 13.9247 12.966 13.9247 12.2529C13.9247 11.5398 13.7411 10.8268 13.3423 10.8268C12.9435 10.8268 13.5374 10.3474 13.8784 10.7455C14.2195 11.1436 15.4153 10.7081 15.1724 10.4287C14.9295 10.1493 14.0673 9.80111 13.9247 9.80111C13.782 9.80111 14.9058 9.12056 13.9247 9.12056C12.9435 9.12056 13.5062 9.70187 12.8413 9.0847C12.1764 8.46753 13.1244 9.38596 13.1244 8.34955C13.1244 7.31314 12.8554 6.88966 11.9673 7.47142C11.0792 8.05318 11.2495 7.6842 10.9334 7.46485C10.6173 7.2455 10.3399 8.26794 10.6877 8.47665C11.0356 8.68536 11.4212 9.20265 11.0733 9.20265C10.7255 9.20265 10.4799 8.90415 10.4799 8.6904C10.4799 8.47665 9.53333 8.09912 8.63494 8.09912C7.73655 8.09912 8.31782 8.6904 8.63494 8.6904C8.95206 8.6904 10.3722 9.12056 9.66213 9.12056C8.95206 9.12056 9.71698 8.80229 8.82196 8.80229C7.92693 8.80229 6.88653 8.44 6.88653 9.12056C6.88653 9.80111 7.78084 10.1026 8.06023 9.80111C8.33961 9.49962 8.6626 8.99136 8.6626 9.49879C8.6626 10.0062 7.95074 9.79905 6.88653 10.1139C5.82231 10.4287 6.1277 11.2586 7.39724 11.0559C8.66679 10.8532 8.52942 10.8643 9.03912 10.5495C9.54882 10.2347 10.1796 10.3224 9.66213 10.8268C9.14464 11.3311 8.62715 12.2529 9.14464 12.2529C9.66213 12.2529 9.99573 12.3783 9.99573 11.891C9.99573 11.4038 10.2961 10.4551 10.2961 11.0559C10.2961 11.6567 10.6877 12.1096 11.0356 11.891C11.3834 11.6725 10.9546 10.9887 11.3517 10.9887C11.7488 10.9887 11.7642 10.8268 11.7642 10.8268Z" clip-rule="evenodd"/></g></g></g></g></g></g><defs><filter id="filter0_dd_91_29040" width="42" height="30" x="0" y="0" color-interpolation-filters="sRGB" filterUnits="userSpaceOnUse"><feFlood flood-opacity="0" result="BackgroundImageFix"/><feColorMatrix in="SourceAlpha" result="hardAlpha" values="0 0 0 0 0 0 0 0 0 0 0 0 0 0 0 0 0 0 127 0"/><feOffset dy="1"/><feGaussianBlur stdDeviation="1"/><feColorMatrix values="0 0 0 0 0.0627451 0 0 0 0 0.0941176 0 0 0 0 0.156863 0 0 0 0.06 0"/><feBlend in2="BackgroundImageFix" result="effect1_dropShadow_91_29040"/><feColorMatrix in="SourceAlpha" result="hardAlpha" values="0 0 0 0 0 0 0 0 0 0 0 0 0 0 0 0 0 0 127 0"/><feOffset dy="1"/><feGaussianBlur stdDeviation="1.5"/><feColorMatrix values="0 0 0 0 0.0627451 0 0 0 0 0.0941176 0 0 0 0 0.156863 0 0 0 0.1 0"/><feBlend in2="effect1_dropShadow_91_29040" result="effect2_dropShadow_91_29040"/><feBlend in="SourceGraphic" in2="effect2_dropShadow_91_29040" result="shape"/></filter><clipPath id="clip0_91_29040"><rect width="36" height="24" x="3" y="2" fill="white" rx="2"/></clipPath></defs></svg>

<svg xmlns="http://www.w3.org/2000/svg" fill="none" aria-hidden="true" viewBox="0 0 42 30"><g filter="url(#a)"><g clip-path="url(#b)"><mask id="c" width="36" height="24" x="3" y="2" maskUnits="userSpaceOnUse" style="mask-type:alpha"><path fill="#fff" d="M3 2h36v24H3z"/></mask><g mask="url(#c)"><path fill="#5EAA22" fill-rule="evenodd" d="M3 2h36v24H3V2Z" clip-rule="evenodd"/><path fill="#FECA00" fill-rule="evenodd" d="m30 9-1.125.732.15-1.232L27.75 8l1.276-.5-.151-1.232L30 7l1.125-.732-.15 1.232 1.275.5-1.276.5.151 1.232L30 9Zm-1.167 6.679-1.125.732.15-1.232-1.275-.5 1.276-.5-.151-1.232 1.125.732 1.125-.732-.15 1.232 1.275.5-1.276.5.151 1.232-1.125-.732ZM32.25 21l-1.125.732.15-1.232L30 20l1.276-.5-.151-1.232L32.25 19l1.125-.732-.15 1.232 1.275.5-1.276.5.151 1.232L32.25 21Zm1.125-9.5-.563.366.076-.616-.638-.25.638-.25-.075-.616.562.366.563-.366-.076.616.638.25-.638.25.075.616-.562-.366Zm-22.5 4.5c3.107 0 5.625-2.239 5.625-5s-2.518-5-5.625-5S5.25 8.239 5.25 11s2.518 5 5.625 5Zm14.51.945c-.74 1.13-1.917 1.642-3.492 1.642-2.357 0-4.268-1.698-4.268-3.793 0-2.096 1.91-3.794 4.268-3.794 1.798 0 3.233.56 3.891 2.083-.52-.46-1.327-.775-2.534-.735-1.864 0-3.076 1.29-3.076 2.395s1.212 2.606 3.076 2.606c.938-.012 1.63-.164 2.135-.404Z" clip-rule="evenodd"/><path fill="#915E2B" d="M11.53 10.694s-1.1 3.58-1.554 3.92c-.2.079 1.821 0 1.821 0s-.758-.295-.49-.688c.266-.392.615-2.916.49-3.776-.125-.86-.267.544-.267.544Z"/><path fill="#5EAA22" fill-rule="evenodd" d="M11.764 10.827s1.18.315 1.18.85c0 .536.98 1.289.98.576s-.183-1.426-.582-1.426c-.399 0 .195-.48.536-.082.341.399 1.537-.037 1.294-.316-.242-.28-1.105-.628-1.247-.628-.143 0 .98-.68 0-.68-.982 0-.419.58-1.084-.036-.665-.617.283.301.283-.735 0-1.037-.269-1.46-1.157-.879-.888.582-.718.213-1.034-.006-.316-.22-.593.803-.245 1.012.348.208.733.726.385.726s-.593-.299-.593-.513c0-.213-.947-.59-1.845-.59s-.317.59 0 .59 1.737.43 1.027.43c-.71 0 .055-.318-.84-.318s-1.935-.362-1.935.319c0 .68.894.982 1.173.68.28-.301.603-.81.603-.302 0 .507-.712.3-1.776.615-1.065.315-.76 1.145.51.942 1.27-.203 1.132-.192 1.642-.506.51-.315 1.14-.228.623.277-.517.504-1.035 1.426-.517 1.426.517 0 .85.125.85-.362s.301-1.436.301-.835c0 .6.392 1.054.74.835.347-.219-.081-.902.316-.902s.412-.162.412-.162Z" clip-rule="evenodd"/></g></g></g><defs><clipPath id="b"><rect width="36" height="24" x="3" y="2" fill="#fff" rx="2"/></clipPath><filter id="a" width="42" height="30" x="0" y="0" color-interpolation-filters="sRGB" filterUnits="userSpaceOnUse"><feFlood flood-opacity="0" result="BackgroundImageFix"/><feColorMatrix in="SourceAlpha" result="hardAlpha" values="0 0 0 0 0 0 0 0 0 0 0 0 0 0 0 0 0 0 127 0"/><feOffset dy="1"/><feGaussianBlur stdDeviation="1"/><feColorMatrix values="0 0 0 0 0.0627451 0 0 0 0 0.0941176 0 0 0 0 0.156863 0 0 0 0.06 0"/><feBlend in2="BackgroundImageFix" result="effect1_dropShadow_91_29040"/><feColorMatrix in="SourceAlpha" result="hardAlpha" values="0 0 0 0 0 0 0 0 0 0 0 0 0 0 0 0 0 0 127 0"/><feOffset dy="1"/><feGaussianBlur stdDeviation="1.5"/><feColorMatrix values="0 0 0 0 0.0627451 0 0 0 0 0.0941176 0 0 0 0 0.156863 0 0 0 0.1 0"/><feBlend in2="effect1_dropShadow_91_29040" result="effect2_dropShadow_91_29040"/><feBlend in="SourceGraphic" in2="effect2_dropShadow_91_29040" result="shape"/></filter></defs></svg>
